!!!OTL: MAEDCHEN WILLST DU MIRS GESTEHEN
!!!ARE: Europa, Mitteleuropa, Deutschland, Hessen, Wetzlar, Gellertshausen
!!!SCT: E0717
!!!YEM: Copyright 1995, estate of Helmut Schaffrath.
**kern
*ICvox
*Ivox
*M3/4
*k[b-e-]
*B-:
{8.f
16g
=1
4f
8d
8f
8.b-
16cc
=2
4b-
4a
4r}
=3
{8.cc
16cc
8b-
8a
8g
8a
=4
4b-
4r}
{8.f
16g
=5
4f
8d
8f
8.b-
16cc
=6
4b-
4a
4r}
=7
{8.cc
16cc
8b-
8a
8g
8a
=8
4b-
4r}
{8g
8cc
=9
4cc
8f
8f
16f
16b-
16dd
16cc
=10
4b-
4r}
==
!!!AGN: Liebes - Lied, Leid, Klage
!!!ONB: ESAC (Essen Associative Code) Database: ERK2
!!!AMT: simple triple
!!!AIN: vox
!!!EED: Helmut Schaffrath
!!!EEV: 1.0
*-
